client/public/phone-out.svg

<?xml version="1.0" encoding="utf-8"?><!-- Uploaded to: SVG Repo, www.svgrepo.com, Generator: SVG Repo Mixer Tools -->
<svg width="800px" height="800px" viewBox="0 0 24 24" fill="none" xmlns="http://www.w3.org/2000/svg">
<path d="M3 6.5C3 14.5081 9.49187 21 17.5 21C18.166 21 18.8216 20.9551 19.4637 20.8682C20.3747 20.7448 21 19.9292 21 19.01V16.4415C21 15.5807 20.4491 14.8164 19.6325 14.5442L16.4841 13.4947C15.6836 13.2279 14.8252 13.699 14.6206 14.5177C14.3475 15.6102 12.987 15.987 12.1907 15.1907L8.80926 11.8093C8.01301 11.013 8.38984 9.65254 9.48229 9.37943C10.301 9.17476 10.7721 8.31644 10.5053 7.51586L9.45585 4.36754C9.18362 3.55086 8.41934 3 7.55848 3H4.99004C4.0708 3 3.25518 3.62533 3.13185 4.53627C3.0449 5.17845 3 5.83398 3 6.5Z" stroke="#323232" stroke-width="2" stroke-linejoin="round"/>
<path d="M15 9L20.5 3.5" stroke="#323232" stroke-width="2" stroke-linecap="round" stroke-linejoin="round"/>
<path d="M21 7L21 3.5V3.5C21 3.22386 20.7761 3 20.5 3V3L17 3" stroke="#323232" stroke-width="2" stroke-linecap="round" stroke-linejoin="round"/>
</svg>

<svg viewBox="0 0 24 24" fill="none" xmlns="http://www.w3.org/2000/svg"><path d="M3 6.5C3 14.508 9.492 21 17.5 21c.666 0 1.322-.045 1.964-.132.91-.123 1.536-.939 1.536-1.858v-2.569a2 2 0 0 0-1.367-1.897l-3.149-1.05a1.449 1.449 0 0 0-1.863 1.024 1.449 1.449 0 0 1-2.43.673l-3.382-3.382a1.449 1.449 0 0 1 .673-2.43 1.449 1.449 0 0 0 1.023-1.863l-1.05-3.148A2 2 0 0 0 7.559 3H4.99c-.92 0-1.735.625-1.858 1.536A14.63 14.63 0 0 0 3 6.5Z" stroke="#323232" stroke-width="2" stroke-linejoin="round"/><path d="m15 9 5.5-5.5M21 7V3.5v0a.5.5 0 0 0-.5-.5v0H17" stroke="#323232" stroke-width="2" stroke-linecap="round" stroke-linejoin="round"/></svg>
